X:93
T:Padraig O'Keefe's
T:Bank of Turf, The
R:jig
H:Also played as a slide (#66)
Z:id:hn-jig-93
M:6/8
K:D
ABA DFA|BAF DFA|~d3 ede|fef def|~g3 gab|afd Bcd|1 e2A efd|
cBA Bcd:|2 ABd efe|~d3 dcd|:e2A efg|f2d fga|gfe fed|edB ABd|
e2A efg|f2d fga|gfe dcB|1 ~A3 ABd:|2 AFA Bcd||
<end>
<start>
